images/pig-scheme/carbonad.svg

<svg width="252" height="140" viewBox="0 0 252 140" fill="none" xmlns="http://www.w3.org/2000/svg">
<path d="M251.97 1.83C251.94 6.15 251.69 10.37 251.23 14.47C251 16.68 250.7 18.86 250.34 21.01C248.8 30.47 246.24 39.33 243.03 47.67C241.73 51.04 240.32 54.32 238.83 57.52C229.67 77.24 217.36 93.82 207.59 108.11C203.86 113.57 200.5 118.69 197.82 123.53C195.33 128.03 193.42 132.3 192.37 136.35C189.75 136.52 187.13 136.68 184.51 136.84C182.51 136.96 180.5 137.08 178.5 137.2C171.71 137.59 164.91 137.95 158.1 138.26C156.13 138.35 154.15 138.44 152.18 138.52C145.47 138.81 138.78 139.05 132.1 139.25C130.16 139.31 128.22 139.36 126.29 139.41C119.69 139.57 113.12 139.69 106.6 139.75C104.7 139.77 102.8 139.79 100.91 139.79C94.44 139.83 88.01 139.81 81.64 139.72C79.78 139.7 77.92 139.67 76.07 139.63C69.73 139.51 63.47 139.33 57.28 139.08C55.47 139.01 53.66 138.93 51.86 138.84C45.68 138.56 39.59 138.2 33.6 137.76C32.93 137.71 32.25 137.66 31.58 137.61V136.38C31.58 135.62 31.59 134.86 31.59 134.11C31.59 127.87 31.53 121.83 31.01 115.35C30.87 113.67 30.71 111.95 30.5 110.2C29.91 105.14 29 99.75 27.61 93.74C27.27 92.27 26.9 90.76 26.5 89.2C25.31 84.62 23.85 79.69 22.06 74.3C21.6 72.93 21.12 71.52 20.61 70.09C19.08 65.71 17.33 61.03 15.33 56.02C14.81 54.7 14.27 53.36 13.71 51.99C11.96 47.71 10.04 43.2 7.92999 38.42C7.36999 37.14 6.79 35.84 6.19 34.51C4.31 30.3 2.28001 25.89 0.100006 21.26C0.0700061 21.19 0.03 21.11 0 21.04C0.14 21 0.289993 20.96 0.429993 20.93C8.45999 18.8 16.91 16.78 25.81 14.89C28.15 14.39 30.52 13.9 32.93 13.42C40.47 11.92 48.32 10.52 56.48 9.22C58.68 8.87 60.91 8.53 63.16 8.19C70.34 7.13 77.76 6.15 85.43 5.27C87.53 5.02 89.65 4.79 91.79 4.56C98.7 3.83 105.8 3.17 113.1 2.6C115.12 2.45 117.16 2.3 119.21 2.15C125.89 1.68 132.73 1.28 139.73 0.97C141.69 0.87 143.65 0.79 145.64 0.72C152.13 0.46 158.77 0.27 165.55 0.15C167.45 0.12 169.37 0.09 171.29 0.07C175.04 0.02 178.84 0 182.68 0C185.35 0 188.01 0.01 190.67 0.03C192.54 0.04 194.41 0.05 196.27 0.08C202.63 0.14 208.98 0.26 215.28 0.42C217.12 0.46 218.95 0.51 220.78 0.57C227.04 0.75 233.27 0.98 239.45 1.25C241.26 1.32 243.06 1.4 244.86 1.49C247.24 1.59 249.61 1.71 251.97 1.83Z" fill="#C21921"/>
<path fill-rule="evenodd" clip-rule="evenodd" d="M0.429993 20.9299L0.100006 21.2599C0.0700061 21.1899 0.03 21.1099 0 21.0399C0.14 20.9999 0.289993 20.9599 0.429993 20.9299Z" fill="#9E1B1E"/>
<path fill-rule="evenodd" clip-rule="evenodd" d="M32.9299 13.4199L7.92993 38.4199C7.36993 37.1399 6.78994 35.8399 6.18994 34.5099L25.8099 14.8899C28.1499 14.3899 30.5199 13.8999 32.9299 13.4199Z" fill="#9E1B1E"/>
<path fill-rule="evenodd" clip-rule="evenodd" d="M63.16 8.18994L15.33 56.0199C14.81 54.6999 14.27 53.3599 13.71 51.9899L56.4799 9.21994C58.68 8.86994 60.91 8.52994 63.16 8.18994Z" fill="#9E1B1E"/>
<path fill-rule="evenodd" clip-rule="evenodd" d="M91.7899 4.56006L22.0599 74.3001C21.5999 72.9301 21.1199 71.5201 20.6099 70.0901L85.4299 5.27006C87.5299 5.02006 89.6499 4.79006 91.7899 4.56006Z" fill="#9E1B1E"/>
<path fill-rule="evenodd" clip-rule="evenodd" d="M119.21 2.15015L27.61 93.7401C27.27 92.2701 26.9 90.7601 26.5 89.2001L113.1 2.60015C115.12 2.45015 117.16 2.30015 119.21 2.15015Z" fill="#9E1B1E"/>
<path fill-rule="evenodd" clip-rule="evenodd" d="M145.64 0.719971L31.01 115.35C30.87 113.67 30.71 111.95 30.5 110.2L139.73 0.969971C141.69 0.869971 143.65 0.789971 145.64 0.719971Z" fill="#9E1B1E"/>
<path fill-rule="evenodd" clip-rule="evenodd" d="M171.29 0.0700684L33.6001 137.76C32.9301 137.71 32.2501 137.66 31.5801 137.61V136.38C31.5801 135.62 31.5901 134.86 31.5901 134.11L165.55 0.150068C167.45 0.120068 169.37 0.0900684 171.29 0.0700684Z" fill="#9E1B1E"/>
<path fill-rule="evenodd" clip-rule="evenodd" d="M196.27 0.0800293L57.2799 139.08C55.4699 139.01 53.6599 138.93 51.8599 138.84L190.67 0.0300293C192.54 0.0400293 194.41 0.0500293 196.27 0.0800293Z" fill="#9E1B1E"/>
<path fill-rule="evenodd" clip-rule="evenodd" d="M220.78 0.569922L81.64 139.72C79.78 139.7 77.9201 139.67 76.0701 139.63L215.28 0.419922C217.12 0.459922 218.95 0.509922 220.78 0.569922Z" fill="#9E1B1E"/>
<path fill-rule="evenodd" clip-rule="evenodd" d="M244.86 1.49L106.6 139.75C104.7 139.77 102.8 139.79 100.91 139.79L239.45 1.25C241.26 1.32 243.06 1.4 244.86 1.49Z" fill="#9E1B1E"/>
<path fill-rule="evenodd" clip-rule="evenodd" d="M251.23 14.47C251 16.68 250.7 18.86 250.34 21.01L132.1 139.25C130.16 139.31 128.22 139.36 126.29 139.41L251.23 14.47Z" fill="#9E1B1E"/>
<path fill-rule="evenodd" clip-rule="evenodd" d="M243.03 47.6699C241.73 51.0399 240.32 54.3199 238.83 57.5199L158.1 138.26C156.13 138.35 154.15 138.44 152.18 138.52L243.03 47.6699Z" fill="#9E1B1E"/>
<path fill-rule="evenodd" clip-rule="evenodd" d="M207.59 108.11C203.86 113.57 200.5 118.69 197.82 123.53L184.51 136.84C182.51 136.96 180.5 137.08 178.5 137.2L207.59 108.11Z" fill="#9E1B1E"/>
</svg>

<svg width="252" height="140" fill="none" xmlns="http://www.w3.org/2000/svg"><path d="M251.97 1.83c-.03 4.32-.28 8.54-.74 12.64-.23 2.21-.53 4.39-.89 6.54-1.54 9.46-4.1 18.32-7.31 26.66-1.3 3.37-2.71 6.65-4.2 9.85-9.16 19.72-21.47 36.3-31.24 50.59-3.73 5.46-7.09 10.58-9.77 15.42-2.49 4.5-4.4 8.77-5.45 12.82-2.62.17-5.24.33-7.86.49l-6.01.36a1718.716 1718.716 0 01-26.32 1.32c-6.71.29-13.4.53-20.08.73-1.94.06-3.88.11-5.81.16-6.6.16-13.17.28-19.69.34-1.9.02-3.8.04-5.69.04-6.47.04-12.9.02-19.27-.07-1.86-.02-3.72-.05-5.57-.09-6.34-.12-12.6-.3-18.79-.55-1.81-.07-3.62-.15-5.42-.24-6.18-.28-12.27-.64-18.26-1.08l-2.02-.15v-1.23c0-.76.01-1.52.01-2.27 0-6.24-.06-12.28-.58-18.76-.14-1.68-.3-3.4-.51-5.15-.59-5.06-1.5-10.45-2.89-16.46-.34-1.47-.71-2.98-1.11-4.54-1.19-4.58-2.65-9.51-4.44-14.9-.46-1.37-.94-2.78-1.45-4.21-1.53-4.38-3.28-9.06-5.28-14.07-.52-1.32-1.06-2.66-1.62-4.03-1.75-4.28-3.67-8.79-5.78-13.57-.56-1.28-1.14-2.58-1.74-3.91C4.31 30.3 2.28 25.89.1 21.26c-.03-.07-.07-.15-.1-.22.14-.04.29-.08.43-.11 8.03-2.13 16.48-4.15 25.38-6.04 2.34-.5 4.71-.99 7.12-1.47 7.54-1.5 15.39-2.9 23.55-4.2a870 870 0 016.68-1.03c7.18-1.06 14.6-2.04 22.27-2.92 2.1-.25 4.22-.48 6.36-.71 6.91-.73 14.01-1.39 21.31-1.96 2.02-.15 4.06-.3 6.11-.45 6.68-.47 13.52-.87 20.52-1.18 1.96-.1 3.92-.18 5.91-.25a892.01 892.01 0 0125.65-.65c3.75-.05 7.55-.07 11.39-.07 2.67 0 5.33.01 7.99.03 1.87.01 3.74.02 5.6.05 6.36.06 12.71.18 19.01.34 1.84.04 3.67.09 5.5.15 6.26.18 12.49.41 18.67.68 1.81.07 3.61.15 5.41.24 2.38.1 4.75.22 7.11.34z" fill="#C21921"/><path fill-rule="evenodd" clip-rule="evenodd" d="M.43 20.93l-.33.33c-.03-.07-.07-.15-.1-.22.14-.04.29-.08.43-.11zm32.5-7.51l-25 25c-.56-1.28-1.14-2.58-1.74-3.91l19.62-19.62c2.34-.5 4.71-.99 7.12-1.47zm30.23-5.23L15.33 56.02c-.52-1.32-1.06-2.66-1.62-4.03L56.48 9.22a870 870 0 016.68-1.03zm28.63-3.63L22.06 74.3c-.46-1.37-.94-2.78-1.45-4.21L85.43 5.27c2.1-.25 4.22-.48 6.36-.71zm27.42-2.41l-91.6 91.59c-.34-1.47-.71-2.98-1.11-4.54l86.6-86.6c2.02-.15 4.06-.3 6.11-.45zM145.64.72L31.01 115.35c-.14-1.68-.3-3.4-.51-5.15L139.73.97c1.96-.1 3.92-.18 5.91-.25zm25.65-.65L33.6 137.76l-2.02-.15v-1.23c0-.76.01-1.52.01-2.27L165.55.15c1.9-.03 3.82-.06 5.74-.08zm24.98.01l-138.99 139c-1.81-.07-3.62-.15-5.42-.24L190.67.03c1.87.01 3.74.02 5.6.05zm24.51.49L81.64 139.72c-1.86-.02-3.72-.05-5.57-.09L215.28.42c1.84.04 3.67.09 5.5.15zm24.08.92L106.6 139.75c-1.9.02-3.8.04-5.69.04L239.45 1.25c1.81.07 3.61.15 5.41.24zm6.37 12.98c-.23 2.21-.53 4.39-.89 6.54L132.1 139.25c-1.94.06-3.88.11-5.81.16L251.23 14.47zm-8.2 33.2c-1.3 3.37-2.71 6.65-4.2 9.85l-80.73 80.74c-1.97.09-3.95.18-5.92.26l90.85-90.85zm-35.44 60.44c-3.73 5.46-7.09 10.58-9.77 15.42l-13.31 13.31-6.01.36 29.09-29.09z" fill="#9E1B1E"/></svg>
